docs/.gitbook/assets/icon-mountain-16@dark.svg

<svg width="32" height="32" viewBox="0 0 16 16" fill="none" xmlns="http://www.w3.org/2000/svg">
<rect x="0" y="0" width="16" height="16" fill="#181c1f"/>
<path fill-rule="evenodd" clip-rule="evenodd" d="M8 3.5C7.6058 3.5 7.15516 3.72928 6.89865 4.31762L6.64719 4.89437C6.69561 4.94555 6.75171 4.99987 6.81539 5.05412C7.08598 5.28468 7.47411 5.5 8 5.5C8.52589 5.5 8.91402 5.28468 9.18462 5.05412C9.24829 4.99987 9.30439 4.94555 9.35282 4.89437L9.10136 4.31762C8.84485 3.72928 8.39421 3.5 8 3.5ZM10.901 4.69206L10.4764 3.71813C9.99582 2.61597 9.02613 2 8 2C6.97388 2 6.00419 2.61597 5.52365 3.71813L5.09905 4.69201C5.09675 4.69712 5.09451 4.70226 5.09233 4.70742L1.0625 13.9503C0.961415 14.1821 0.984004 14.4493 1.12258 14.6609C1.26116 14.8725 1.49706 15 1.75 15L7.75 15H14.25C14.5198 15 14.7687 14.8551 14.902 14.6206C15.0353 14.3861 15.0324 14.0981 14.8944 13.8663L12.5053 9.85386C11.8275 8.71538 10.1725 8.71538 9.49466 9.85385L7.32369 13.5L2.89518 13.5L6.01847 6.33641C6.48026 6.68189 7.14163 7 8 7C8.85837 7 9.51974 6.68189 9.98154 6.33641L10.4015 7.29975C10.5671 7.67944 11.0091 7.85304 11.3888 7.6875C11.7685 7.52195 11.9421 7.07995 11.7765 6.70025L10.9077 4.70737C10.9055 4.70224 10.9033 4.69714 10.901 4.69206ZM9.06944 13.5H12.9306L11.2165 10.6213C11.1202 10.4596 10.8798 10.4596 10.7835 10.6212L9.06944 13.5Z" fill="#fff"/>
</svg>

<svg xmlns="http://www.w3.org/2000/svg" width="32" height="32" fill="none" viewBox="0 0 16 16"><path fill="#181c1f" d="M0 0h16v16H0z"/><path fill="#fff" fill-rule="evenodd" d="M8 3.5c-.394 0-.845.23-1.101.818l-.252.576q.074.079.168.16c.271.23.66.446 1.185.446a1.8 1.8 0 0 0 1.185-.446q.095-.082.168-.16L9.1 4.318C8.845 3.729 8.394 3.5 8 3.5m2.901 1.192-.425-.974C9.996 2.616 9.026 2 8 2s-1.996.616-2.476 1.718l-.425.974-.007.015-4.03 9.243A.75.75 0 0 0 1.75 15h12.5a.75.75 0 0 0 .644-1.134l-2.389-4.012c-.678-1.139-2.333-1.139-3.01 0L7.324 13.5H2.895l3.123-7.164A3.27 3.27 0 0 0 8 7c.858 0 1.52-.318 1.982-.664l.42.964a.75.75 0 0 0 1.375-.6l-.87-1.993zM9.069 13.5h3.862l-1.714-2.879a.254.254 0 0 0-.434 0z" clip-rule="evenodd"/></svg>
